icons/svg/craft/electronics_repair.svg

<?xml version="1.0" encoding="UTF-8" standalone="no"?>
<!-- Created with Inkscape (http://www.inkscape.org/) -->

<svg
   xmlns:dc="http://purl.org/dc/elements/1.1/"
   xmlns:cc="http://creativecommons.org/ns#"
   xmlns:rdf="http://www.w3.org/1999/02/22-rdf-syntax-ns#"
   xmlns:svg="http://www.w3.org/2000/svg"
   xmlns="http://www.w3.org/2000/svg"
   xmlns:sodipodi="http://sodipodi.sourceforge.net/DTD/sodipodi-0.dtd"
   xmlns:inkscape="http://www.inkscape.org/namespaces/inkscape"
   version="1.0"
   width="580"
   height="580"
   id="svg2"
   sodipodi:version="0.32"
   inkscape:version="0.92.3 (2405546, 2018-03-11)"
   sodipodi:docname="craft_electronics_repair.svg"
   inkscape:output_extension="org.inkscape.output.svg.inkscape">
  <metadata
     id="metadata10">
    <rdf:RDF>
      <cc:Work
         rdf:about="">
        <dc:format>image/svg+xml</dc:format>
        <dc:type
           rdf:resource="http://purl.org/dc/dcmitype/StillImage" />
        <cc:license
           rdf:resource="http://web.resource.org/cc/PublicDomain" />
        <dc:language>en</dc:language>
      </cc:Work>
    </rdf:RDF>
  </metadata>
  <sodipodi:namedview
     inkscape:window-height="1006"
     inkscape:window-width="1920"
     inkscape:pageshadow="2"
     inkscape:pageopacity="0.0"
     guidetolerance="10.0"
     gridtolerance="10.0"
     objecttolerance="10.0"
     borderopacity="1.0"
     bordercolor="#666666"
     pagecolor="#ffffff"
     id="base"
     showgrid="false"
     inkscape:zoom="0.5"
     inkscape:cx="251.31431"
     inkscape:cy="247.65757"
     inkscape:window-x="1920"
     inkscape:window-y="0"
     inkscape:current-layer="svg2"
     inkscape:window-maximized="1" />
  <defs
     id="defs4">
    <inkscape:perspective
       sodipodi:type="inkscape:persp3d"
       inkscape:vp_x="0 : 290 : 1"
       inkscape:vp_y="0 : 1000 : 0"
       inkscape:vp_z="580 : 290 : 1"
       inkscape:persp3d-origin="290 : 193.33333 : 1"
       id="perspective12" />
    <style
       type="text/css"
       id="style6">
   
    .fil0 {fill:#EF7900}
   
  </style>
    <inkscape:perspective
       id="perspective6807"
       inkscape:persp3d-origin="29.116032 : 19.410688 : 1"
       inkscape:vp_z="58.232063 : 29.116032 : 1"
       inkscape:vp_y="0 : 1000 : 0"
       inkscape:vp_x="0 : 29.116032 : 1"
       sodipodi:type="inkscape:persp3d" />
  </defs>
  <g
     id="g1327">
    <path
       d="M 66.275,1.768 C 24.94,1.768 1.704,23.139 1.704,66.804 L 1.704,516.927 C 1.704,557.771 22.598,579.156 63.896,579.156 L 515.92,579.156 C 557.227,579.156 578.149,558.84 578.149,516.927 L 578.149,66.804 C 578.149,24.203 557.227,1.768 514.627,1.768 C 514.624,1.768 66.133,1.625 66.275,1.768 z"
       style="fill:#111111;stroke:#eeeeee;stroke-width:3.40799999"
       id="path1329" />
  </g>
  <path
     inkscape:connector-curvature="0"
     style="fill:#ffffff;fill-opacity:1;stroke:none;stroke-width:1"
     d="M 47.75736,149.54268 V 372.7748 H 396.56528 V 149.54268 Z m 23.633719,22.49415 H 374.14547 v 178.9127 H 71.391079 Z m 53.113931,228.95474 c -3.85075,0 -6.98607,4.88115 -6.98607,10.92503 0,6.04387 3.13506,10.92501 6.98607,10.92501 h 195.31262 c 3.85774,0 6.98607,-4.88114 6.98607,-10.92501 0,-6.04388 -3.12833,-10.92503 -6.98607,-10.92503 z"
     id="path4" />
  <rect
     style="color:#000000;display:inline;overflow:visible;visibility:visible;opacity:0.5810277;fill:#ffffff;fill-opacity:1;fill-rule:nonzero;stroke:none;stroke-width:2;marker:none;enable-background:accumulate"
     id="rect3786"
     width="302.75931"
     height="178.90324"
     x="71.395462"
     y="172.04359" />
  <rect
     style="color:#000000;display:inline;overflow:visible;visibility:visible;fill:#ffffff;fill-opacity:1;fill-rule:nonzero;stroke:none;stroke-width:2;marker:none;enable-background:accumulate"
     id="rect3807"
     width="23.719442"
     height="51.69622"
     x="210.30161"
     y="360.99963" />
  <path
     style="fill:#ffffff;fill-opacity:1"
     d="m 477.68048,38.85425 c -10.90683,-0.17326 -37.11803,51.28147 -38.07813,107.72657 -0.55553,33.62473 19.66587,54.07669 19.45899,66.37109 -0.16102,8.34669 -20.96399,23.10209 -21.07227,29.53711 -0.26707,15.8717 15.24219,14.42578 15.24219,14.42578 l 68.47265,1.14258 c 0,0 15.06746,4.05823 15.35937,-13.90039 0.11071,-6.57894 -20.21059,-21.11069 -20.04687,-30.22852 0.26501,-15.74834 21.25521,-40.41278 21.66992,-65.66992 C 539.6034,93.14946 515.46885,39.50933 504.54181,39.31518 Z m -5.13087,239.26953 -3.27344,199.09571 -10.65038,21.8457 9.65039,37.5918 c -0.0446,3.25881 2.56312,5.97625 5.83203,6.03125 l 17.7832,0.29884 c 3.24834,0.0547 5.96614,-2.57359 6.03124,-5.83204 l 10.91211,-37.40821 -9.90625,-22.33594 3.26759,-198.78907 z"
     id="path3"
     inkscape:connector-curvature="0"
     sodipodi:nodetypes="cccscccccccccccccccccc" />
</svg>

<svg width="580" height="580" viewBox="0 0 580 580" fill="none" xmlns="http://www.w3.org/2000/svg">
<g clip-path="url(#clip0)">
<path d="M66.275 1.76802C24.94 1.76802 1.70398 23.139 1.70398 66.804V516.927C1.70398 557.771 22.598 579.156 63.896 579.156H515.92C557.227 579.156 578.149 558.84 578.149 516.927V66.804C578.149 24.203 557.227 1.76802 514.627 1.76802C514.624 1.76802 66.133 1.62502 66.275 1.76802Z" fill="#111111" stroke="#EEEEEE" stroke-width="3.408"/>
<path d="M47.7574 149.543V372.775H396.565V149.543H47.7574ZM71.3911 172.037H374.146V350.95H71.3911V172.037ZM124.505 400.992C120.654 400.992 117.519 405.873 117.519 411.917C117.519 417.96 120.654 422.842 124.505 422.842H319.818C323.675 422.842 326.804 417.96 326.804 411.917C326.804 405.873 323.675 400.992 319.818 400.992H124.505Z" fill="white"/>
<path opacity="0.581028" d="M374.155 172.044H71.3954V350.947H374.155V172.044Z" fill="white"/>
<path d="M234.021 361H210.302V412.696H234.021V361Z" fill="white"/>
<path d="M477.68 38.8543C466.774 38.681 440.562 90.1357 439.602 146.581C439.047 180.206 459.268 200.658 459.061 212.952C458.9 221.299 438.097 236.054 437.989 242.489C437.722 258.361 453.231 256.915 453.231 256.915L521.704 258.057C521.704 258.057 536.771 262.116 537.063 244.157C537.174 237.578 516.853 223.046 517.016 213.928C517.281 198.18 538.272 173.516 538.686 148.259C539.603 93.1495 515.469 39.5093 504.542 39.3152L477.68 38.8543ZM472.55 278.124L469.276 477.219L458.626 499.065L468.276 536.657C468.232 539.916 470.839 542.633 474.108 542.688L491.891 542.987C495.14 543.042 497.858 540.413 497.923 537.155L508.835 499.747L498.928 477.411L502.196 278.622L472.55 278.124Z" fill="white"/>
</g>
<defs>
<clipPath id="clip0">
<path d="M0 0H580V580H0V0Z" fill="white"/>
</clipPath>
</defs>
</svg>
